X: 1101
T: Duke of Grafton's March.
%R: march
B: Henry Playford "Apollo's Banquet", London 1687 (5th Edition)
F: https://archive.org/details/apollosbanquetco01rugg
Z: 2017 John Chambers <jc:trillian.mit.edu>
M: C|
L: 1/8
K: C
% - - - - - - - - - -
G2 |\
cde2 d2g2 | c2cc c2G2 |\
c2de fedc | d3d d2 :: df |\
e2df e2de | f2ef g2G2 |
d2Bc d2G2 | dcde d2cd |\
edef e2dc | dcde d2ef |\
g2fe fedc | c6 |]
% - - - - - - - - - -

%%sep 1 1 500
%%sep 1 1 500

